X:3
T: Sangeslohn
N: Q0124B
O: Mitteleuropa, Deutschland
N: Tonangabe zur Ballade "Sangeslohn" - moegliche Melodie (??) .
N: Taktart von "3er" in 6/4 geaendert. Dabei Notenwerte halbiert und
N: zwei Notenwerte rhythmisch korrigiert.
R: geistlich
M: 6/4
L: 1/8
K: F
F2 | F4F2F4D2 | C4G2G4
G2 | A4B4G2G2 | F6-F4
A2 | B4B2B4A2 | G6G4
G2 | A4c2c3BA2 | G6-G4
G2 | A4B4G2G2 | F6-F4

@@@ Tune index: 1501
